src/images/logo.svg

<svg width="256" height="126" viewBox="0 0 256 126" fill="none" xmlns="http://www.w3.org/2000/svg">
<path d="M62.1908 32.7275L102.354 75.8688L64.0455 68.3362L22.0273 75.8688L62.1908 32.7275Z" fill="#1CA306"/>
<path d="M62.1901 40.9453L104.857 88.8801L62.1903 82.0323L17.668 88.8801L62.1901 40.9453Z" fill="#1CA306"/>
<path d="M62.1897 51.9014L108.779 101.206H15.6L62.1897 51.9014Z" fill="#1CA306"/>
<rect x="45.4941" y="101.206" width="29.3439" height="5.75919" fill="#9F760D"/>
<path d="M202.205 32.8691L242.368 76.0104L204.059 68.4778L162.041 76.0104L202.205 32.8691Z" fill="#1CA306"/>
<path d="M202.204 41.0869L244.871 89.0217L202.204 82.1739L157.682 89.0217L202.204 41.0869Z" fill="#1CA306"/>
<path d="M202.203 52.043L248.793 101.347H155.614L202.203 52.043Z" fill="#1CA306"/>
<rect x="185.508" y="101.348" width="29.3439" height="5.75919" fill="#9F760D"/>
<path d="M131.71 0L171.874 62.6245L133.565 51.69L91.5469 62.6245L131.71 0Z" fill="#25671A"/>
<path d="M131.71 11.9287L174.377 81.5115L131.71 71.5711L87.1875 81.5115L131.71 11.9287Z" fill="#25671A"/>
<path d="M131.709 27.833L178.299 99.4038H85.1196L131.709 27.833Z" fill="#25671A"/>
<rect x="115.014" y="99.4043" width="29.3439" height="8.36012" fill="#9F760D"/>
<path d="M84.2934 92.4409C82.7067 92.0676 81.2134 91.4492 79.8134 90.5859C78.4367 89.6992 77.3517 88.6492 76.5584 87.4359C75.6484 86.0359 75.065 84.4959 74.8084 82.8159C74.5517 81.1359 74.5984 79.5026 74.9484 77.9159C75.2984 76.3059 75.8934 74.8242 76.7334 73.4709C77.5967 72.0009 78.6817 70.7759 79.9884 69.7959C81.3184 68.7926 82.8584 68.0809 84.6084 67.6609C86.3584 67.2409 88.2367 67.3226 90.2434 67.9059C90.99 68.1159 91.6434 68.3492 92.2034 68.6059C92.7867 68.8626 93.3 69.2009 93.7434 69.6209C94.21 70.0176 94.56 70.3442 94.7934 70.6009C95.0267 70.8342 95.3534 71.2426 95.7734 71.8259C96.1934 72.3859 96.4734 72.7476 96.6134 72.9109C96.9867 73.3309 97.1267 73.8326 97.0334 74.4159C96.9634 74.9759 96.695 75.4192 96.2284 75.7459C95.7617 76.0726 95.225 76.2009 94.6184 76.1309C94.035 76.0609 93.58 75.8042 93.2534 75.3609L92.2384 74.1709C91.8884 73.7042 91.6434 73.3892 91.5034 73.2259C91.3634 73.0626 91.1534 72.8642 90.8734 72.6309C90.6167 72.3976 90.3484 72.2226 90.0684 72.1059C89.8117 71.9892 89.4617 71.8726 89.0184 71.7559C87.245 71.2892 85.6117 71.3942 84.1184 72.0709C82.6484 72.7476 81.4234 73.8676 80.4434 75.4309C79.4867 76.9942 78.985 78.6742 78.9384 80.4709C78.8917 82.2676 79.3234 83.8776 80.2334 85.3009C80.7 86.0242 81.3884 86.6776 82.2984 87.2609C83.2084 87.8442 84.1884 88.2526 85.2384 88.4859C87.4784 88.9759 89.205 88.6026 90.4184 87.3659C90.7684 86.9926 91.165 86.4209 91.6084 85.6509C92.425 84.0176 92.8334 83.1892 92.8334 83.1659C93.1367 82.6759 93.5684 82.3609 94.1284 82.2209C94.7117 82.0576 95.26 82.1159 95.7734 82.3959C96.2867 82.6526 96.625 83.0609 96.7884 83.6209C96.9517 84.1576 96.8934 84.6592 96.6134 85.1259C96.4734 85.3592 96.345 85.5926 96.2284 85.8259L95.8084 86.6659L95.4584 87.4009C94.875 88.5209 94.2684 89.4076 93.6384 90.0609C92.7984 90.9009 91.83 91.5542 90.7334 92.0209C89.6367 92.4642 88.5517 92.6859 87.4784 92.6859C86.4284 92.7092 85.3667 92.6276 84.2934 92.4409ZM103.344 91.5659C101.874 90.7492 100.766 89.5592 100.019 87.9959C99.2726 86.4326 98.8993 84.7759 98.8993 83.0259C98.8993 81.2992 99.261 79.6542 99.9843 78.0909C100.731 76.5276 101.839 75.3259 103.309 74.4859C104.009 74.0892 104.908 73.8559 106.004 73.7859C106.354 73.4359 106.774 73.2259 107.264 73.1559C107.778 73.0859 108.256 73.1909 108.699 73.4709C109.259 73.8442 110.088 74.3342 111.184 74.9409C112.118 75.4776 112.806 75.9209 113.249 76.2709C113.949 76.9009 114.474 77.6476 114.824 78.5109C115.198 79.3742 115.489 80.4942 115.699 81.8709C115.933 83.5042 115.793 85.1142 115.279 86.7009C114.766 88.2876 113.938 89.6059 112.794 90.6559C111.558 91.7992 110.123 92.4642 108.489 92.6509C106.856 92.8376 105.141 92.4759 103.344 91.5659ZM105.409 87.7859C107.136 88.7426 108.618 88.6492 109.854 87.5059C110.461 86.9459 110.916 86.2226 111.219 85.3359C111.523 84.4259 111.593 83.4692 111.429 82.4659C111.196 80.8559 110.858 79.8759 110.414 79.5259C110.204 79.3392 109.773 79.0592 109.119 78.6859L107.859 77.9859C107.673 78.0092 107.451 78.0209 107.194 78.0209H106.809C106.576 78.0209 106.401 78.0326 106.284 78.0559C105.864 78.0792 105.584 78.1259 105.444 78.1959C104.768 78.5926 104.219 79.2226 103.799 80.0859C103.403 80.9492 103.204 81.9409 103.204 83.0609C103.204 84.1576 103.403 85.1376 103.799 86.0009C104.196 86.8409 104.733 87.4359 105.409 87.7859ZM128.645 92.2309C127.058 92.7442 125.402 92.7209 123.675 92.1609C122.252 91.6942 121.085 90.9826 120.175 90.0259C119.265 89.0459 118.658 87.9726 118.355 86.8059C118.075 85.6159 117.97 84.4259 118.04 83.2359C118.133 82.0459 118.378 80.9026 118.775 79.8059C119.218 78.6859 119.813 77.6592 120.56 76.7259C121.33 75.7926 122.228 75.0692 123.255 74.5559C124.352 73.9959 125.565 73.7742 126.895 73.8909C128.225 74.0076 129.52 74.4859 130.78 75.3259C131.433 75.7692 132.028 76.4459 132.565 77.3559L133.055 78.1609C133.195 78.4176 133.323 78.6159 133.44 78.7559C133.767 79.2226 133.872 79.7476 133.755 80.3309C133.662 80.8909 133.382 81.3459 132.915 81.6959C132.472 82.0459 131.958 82.1742 131.375 82.0809C130.792 81.9642 130.325 81.6726 129.975 81.2059C129.788 80.9492 129.59 80.6342 129.38 80.2609L128.96 79.5259C128.727 79.1526 128.54 78.9192 128.4 78.8259C127.21 78.0092 126.113 77.8576 125.11 78.3709C124.083 78.8842 123.29 79.8759 122.73 81.3459C122.123 82.9092 122.018 84.3326 122.415 85.6159C122.835 86.8992 123.675 87.7509 124.935 88.1709C125.822 88.4276 126.627 88.4392 127.35 88.2059C127.49 88.1826 127.7 88.0309 127.98 87.7509L128.575 87.1559C128.902 86.8526 129.17 86.6076 129.38 86.4209C129.87 86.0709 130.395 85.9309 130.955 86.0009C131.538 86.0476 132.005 86.3042 132.355 86.7709C132.728 87.2376 132.88 87.7626 132.81 88.3459C132.74 88.9292 132.483 89.3959 132.04 89.7459C131.9 89.8392 131.725 89.9909 131.515 90.2009L130.885 90.8309C130.138 91.5309 129.392 91.9976 128.645 92.2309ZM141.031 91.7409C140.634 92.2076 140.132 92.4759 139.526 92.5459C138.942 92.6159 138.417 92.4642 137.951 92.0909C137.484 91.6942 137.216 91.2042 137.146 90.6209C137.052 89.6876 136.971 88.7542 136.901 87.8209C136.831 86.8642 136.784 85.7909 136.761 84.6009L136.691 81.8709C136.691 81.2409 136.679 80.2376 136.656 78.8609C136.656 77.4842 136.656 76.6092 136.656 76.2359C136.632 75.6292 136.831 75.1159 137.251 74.6959C137.694 74.2526 138.207 74.0309 138.791 74.0309C139.397 74.0076 139.911 74.2176 140.331 74.6609C140.774 75.0809 140.996 75.5826 140.996 76.1659C141.019 76.7492 141.031 77.5892 141.031 78.6859V80.7859C143.177 80.7159 145.511 80.6809 148.031 80.6809L147.926 76.1659C147.902 75.5592 148.101 75.0342 148.521 74.5909C148.941 74.1476 149.442 73.9259 150.026 73.9259C150.632 73.9026 151.157 74.1009 151.601 74.5209C152.044 74.9409 152.266 75.4426 152.266 76.0259C152.476 83.2359 152.592 88.0076 152.616 90.3409C152.639 90.9476 152.441 91.4726 152.021 91.9159C151.601 92.3359 151.087 92.5459 150.481 92.5459C149.874 92.5692 149.349 92.3709 148.906 91.9509C148.486 91.5309 148.276 91.0176 148.276 90.4109C148.229 88.7776 148.194 86.9809 148.171 85.0209C145.604 85.0442 143.259 85.0909 141.136 85.1609C141.206 86.9342 141.322 88.5909 141.486 90.1309C141.556 90.7376 141.404 91.2742 141.031 91.7409ZM159.798 92.5109C159.191 92.5576 158.666 92.3826 158.223 91.9859C157.779 91.5892 157.534 91.0876 157.488 90.4809C157.278 87.4009 157.009 82.6059 156.683 76.0959C156.636 75.4892 156.811 74.9642 157.208 74.5209C157.628 74.0776 158.141 73.8442 158.748 73.8209C159.354 73.7742 159.879 73.9609 160.323 74.3809C160.766 74.7776 160.999 75.2792 161.023 75.8859L161.268 80.0859C162.248 79.8992 163.041 79.7709 163.648 79.7009C165.654 79.4442 167.264 79.5142 168.478 79.9109C169.948 80.4009 171.138 81.1592 172.048 82.1859C172.981 83.2126 173.448 84.4026 173.448 85.7559C173.471 87.0859 173.039 88.2992 172.153 89.3959C171.289 90.4692 170.123 91.3209 168.653 91.9509C168.093 92.1842 167.509 92.3709 166.903 92.5109C166.319 92.6276 165.666 92.6859 164.943 92.6859C164.243 92.6859 163.718 92.6742 163.368 92.6509C163.018 92.6509 162.434 92.6159 161.618 92.5459C160.824 92.4759 160.393 92.4292 160.323 92.4059C160.159 92.4759 159.984 92.5109 159.798 92.5109ZM161.688 88.1709C162.714 88.2876 163.683 88.3459 164.593 88.3459C165.503 88.3226 166.296 88.1709 166.973 87.8909C167.533 87.6576 167.976 87.3892 168.303 87.0859C168.653 86.7826 168.863 86.5376 168.933 86.3509C169.026 86.1409 169.073 85.9659 169.073 85.8259C169.073 85.6626 169.038 85.4992 168.968 85.3359C168.898 85.1726 168.699 84.9626 168.373 84.7059C168.046 84.4492 167.614 84.2276 167.078 84.0409C166.518 83.8542 165.561 83.8542 164.208 84.0409C163.578 84.1109 162.668 84.2626 161.478 84.4959L161.688 88.1709ZM174.113 90.3059C174.113 83.3292 174.171 78.5809 174.288 76.0609C174.311 75.4542 174.544 74.9526 174.988 74.5559C175.431 74.1359 175.956 73.9492 176.563 73.9959C177.169 74.0192 177.671 74.2526 178.068 74.6959C178.488 75.1392 178.674 75.6642 178.628 76.2709C178.511 78.4642 178.453 83.1426 178.453 90.3059C178.453 90.9126 178.243 91.4259 177.823 91.8459C177.403 92.2659 176.889 92.4759 176.283 92.4759C175.676 92.4759 175.163 92.2659 174.743 91.8459C174.323 91.4259 174.113 90.9126 174.113 90.3059Z" fill="white"/>
</svg>

<svg width="256" height="126" fill="none" xmlns="http://www.w3.org/2000/svg"><path d="m62.19 32.727 40.164 43.142-38.308-7.533-42.019 7.533 40.164-43.142Z" fill="#1CA306"/><path d="m62.19 40.945 42.667 47.935-42.667-6.848-44.522 6.848L62.19 40.945Z" fill="#1CA306"/><path d="m62.19 51.901 46.589 49.305H15.6l46.59-49.305Z" fill="#1CA306"/><path fill="#9F760D" d="M45.494 101.206h29.344v5.759H45.494z"/><path d="m202.205 32.87 40.163 43.14-38.309-7.532-42.018 7.532 40.164-43.14Z" fill="#1CA306"/><path d="m202.204 41.087 42.667 47.935-42.667-6.848-44.522 6.848 44.522-47.935Z" fill="#1CA306"/><path d="m202.203 52.043 46.59 49.304h-93.179l46.589-49.304Z" fill="#1CA306"/><path fill="#9F760D" d="M185.508 101.348h29.344v5.759h-29.344z"/><path d="m131.71 0 40.164 62.624-38.309-10.934-42.018 10.934L131.71 0Z" fill="#25671A"/><path d="m131.71 11.929 42.667 69.582-42.667-9.94-44.523 9.94L131.71 11.93Z" fill="#25671A"/><path d="m131.709 27.833 46.59 71.57h-93.18l46.59-71.57Z" fill="#25671A"/><path fill="#9F760D" d="M115.014 99.404h29.344v8.36h-29.344z"/><path d="M84.293 92.44a15.05 15.05 0 0 1-4.48-1.854c-1.376-.887-2.461-1.937-3.255-3.15-.91-1.4-1.493-2.94-1.75-4.62-.256-1.68-.21-3.313.14-4.9.35-1.61.945-3.092 1.785-4.445.864-1.47 1.949-2.695 3.255-3.675 1.33-1.003 2.87-1.715 4.62-2.135 1.75-.42 3.629-.338 5.635.245.747.21 1.4.443 1.96.7a5.355 5.355 0 0 1 1.54 1.015c.467.397.817.723 1.05.98.234.233.56.642.98 1.225.42.56.7.922.84 1.085.374.42.514.922.42 1.505a1.837 1.837 0 0 1-.805 1.33c-.466.327-1.003.455-1.61.385-.583-.07-1.038-.327-1.365-.77l-1.015-1.19a21.67 21.67 0 0 0-.735-.945 5.449 5.449 0 0 0-.63-.595 2.806 2.806 0 0 0-.805-.525 6.832 6.832 0 0 0-1.05-.35c-1.773-.467-3.406-.362-4.9.315-1.47.677-2.695 1.797-3.675 3.36-.956 1.563-1.458 3.243-1.505 5.04-.046 1.797.385 3.407 1.295 4.83.467.723 1.155 1.377 2.065 1.96.91.583 1.89.992 2.94 1.225 2.24.49 3.967.117 5.18-1.12.35-.373.747-.945 1.19-1.715.817-1.633 1.225-2.462 1.225-2.485.304-.49.735-.805 1.295-.945.584-.163 1.132-.105 1.645.175a1.91 1.91 0 0 1 1.015 1.225 1.788 1.788 0 0 1-.175 1.505c-.14.233-.268.467-.385.7l-.42.84-.35.735c-.583 1.12-1.19 2.007-1.82 2.66a9.122 9.122 0 0 1-2.905 1.96c-1.096.443-2.181.665-3.255.665a16.422 16.422 0 0 1-3.185-.245Zm19.051-.874c-1.47-.817-2.578-2.007-3.325-3.57a11.392 11.392 0 0 1-1.12-4.97c0-1.727.362-3.372 1.085-4.935.747-1.563 1.855-2.765 3.325-3.605.7-.397 1.599-.63 2.695-.7.35-.35.77-.56 1.26-.63.514-.07.992.035 1.435.315.56.373 1.389.863 2.485 1.47.934.537 1.622.98 2.065 1.33.7.63 1.225 1.377 1.575 2.24.374.863.665 1.983.875 3.36a10.598 10.598 0 0 1-.42 4.83c-.513 1.587-1.341 2.905-2.485 3.955-1.236 1.143-2.671 1.808-4.305 1.995-1.633.187-3.348-.175-5.145-1.085Zm2.065-3.78c1.727.957 3.209.863 4.445-.28.607-.56 1.062-1.283 1.365-2.17.304-.91.374-1.867.21-2.87-.233-1.61-.571-2.59-1.015-2.94-.21-.187-.641-.467-1.295-.84l-1.26-.7a5.446 5.446 0 0 1-.665.035h-.385c-.233 0-.408.012-.525.035-.42.023-.7.07-.84.14-.676.397-1.225 1.027-1.645 1.89-.396.863-.595 1.855-.595 2.975 0 1.097.199 2.077.595 2.94.397.84.934 1.435 1.61 1.785Zm23.236 4.445c-1.587.513-3.243.49-4.97-.07-1.423-.467-2.59-1.178-3.5-2.135-.91-.98-1.517-2.053-1.82-3.22-.28-1.19-.385-2.38-.315-3.57.093-1.19.338-2.333.735-3.43a11.911 11.911 0 0 1 1.785-3.08 8.262 8.262 0 0 1 2.695-2.17c1.097-.56 2.31-.782 3.64-.665 1.33.117 2.625.595 3.885 1.435.653.443 1.248 1.12 1.785 2.03l.49.805c.14.257.268.455.385.595.327.467.432.992.315 1.575a2.078 2.078 0 0 1-.84 1.365c-.443.35-.957.478-1.54.385a2.24 2.24 0 0 1-1.4-.875 9.698 9.698 0 0 1-.595-.945l-.42-.735c-.233-.373-.42-.607-.56-.7-1.19-.817-2.287-.968-3.29-.455-1.027.513-1.82 1.505-2.38 2.975-.607 1.563-.712 2.987-.315 4.27.42 1.283 1.26 2.135 2.52 2.555.887.257 1.692.268 2.415.035.14-.023.35-.175.63-.455l.595-.595c.327-.303.595-.548.805-.735.49-.35 1.015-.49 1.575-.42.583.047 1.05.303 1.4.77.373.467.525.992.455 1.575s-.327 1.05-.77 1.4c-.14.093-.315.245-.525.455l-.63.63c-.747.7-1.493 1.167-2.24 1.4Zm12.386-.49a2.25 2.25 0 0 1-1.505.805 2.04 2.04 0 0 1-1.575-.455c-.467-.397-.735-.887-.805-1.47-.094-.933-.175-1.867-.245-2.8-.07-.957-.117-2.03-.14-3.22l-.07-2.73c0-.63-.012-1.633-.035-3.01v-2.625a1.977 1.977 0 0 1 .595-1.54c.443-.443.956-.665 1.54-.665a1.931 1.931 0 0 1 1.54.63c.443.42.665.922.665 1.505.023.583.035 1.423.035 2.52v2.1c2.146-.07 4.48-.105 7-.105l-.105-4.515a2.086 2.086 0 0 1 .595-1.575c.42-.443.921-.665 1.505-.665a2.09 2.09 0 0 1 1.575.595c.443.42.665.922.665 1.505.21 7.21.326 11.982.35 14.315a2.096 2.096 0 0 1-2.135 2.205 2.095 2.095 0 0 1-2.205-2.135c-.047-1.633-.082-3.43-.105-5.39-2.567.023-4.912.07-7.035.14.07 1.773.186 3.43.35 4.97a2.096 2.096 0 0 1-.455 1.61Zm18.767.77a2.033 2.033 0 0 1-1.575-.525 2.163 2.163 0 0 1-.735-1.505c-.21-3.08-.479-7.875-.805-14.385a2.031 2.031 0 0 1 .525-1.575c.42-.443.933-.677 1.54-.7a1.978 1.978 0 0 1 1.575.56c.443.397.676.898.7 1.505l.245 4.2a34.33 34.33 0 0 1 2.38-.385c2.006-.257 3.616-.187 4.83.21 1.47.49 2.66 1.248 3.57 2.275.933 1.027 1.4 2.217 1.4 3.57.023 1.33-.409 2.543-1.295 3.64-.864 1.073-2.03 1.925-3.5 2.555-.56.233-1.144.42-1.75.56-.584.117-1.237.175-1.96.175-.7 0-1.225-.012-1.575-.035-.35 0-.934-.035-1.75-.105-.794-.07-1.225-.117-1.295-.14-.164.07-.339.105-.525.105Zm1.89-4.34c1.026.117 1.995.175 2.905.175.91-.023 1.703-.175 2.38-.455.56-.233 1.003-.502 1.33-.805.35-.303.56-.548.63-.735.093-.21.14-.385.14-.525 0-.163-.035-.327-.105-.49-.07-.163-.269-.373-.595-.63-.327-.257-.759-.478-1.295-.665-.56-.187-1.517-.187-2.87 0-.63.07-1.54.222-2.73.455l.21 3.675Zm12.425 2.135c0-6.977.058-11.725.175-14.245a2.04 2.04 0 0 1 .7-1.505c.443-.42.968-.607 1.575-.56a2.046 2.046 0 0 1 1.505.7c.42.443.606.968.56 1.575-.117 2.193-.175 6.872-.175 14.035 0 .607-.21 1.12-.63 1.54-.42.42-.934.63-1.54.63-.607 0-1.12-.21-1.54-.63-.42-.42-.63-.933-.63-1.54Z" fill="#fff"/></svg>
